symbols/web/timelapse/materialsymbolsrounded/timelapse_wght600gradN25fill1_24px.svg

<svg xmlns="http://www.w3.org/2000/svg" height="24" width="24"><path d="M8.65 16.975q.75.5 1.6.763Q11.1 18 12 18q2.5 0 4.25-1.75T18 12q0-2.2-1.375-3.85T13.15 6.1q-.45-.075-.8.237-.35.313-.35.838V12l-3.425 3.425q-.35.35-.337.825.012.475.412.725Zm3.35 5.25q-2.15 0-4.012-.8-1.863-.8-3.238-2.175-1.375-1.375-2.175-3.238-.8-1.862-.8-4.012 0-2.15.8-4.013.8-1.862 2.175-3.237 1.375-1.375 3.238-2.175 1.862-.8 4.012-.8 2.15 0 4.012.8 1.863.8 3.238 2.175 1.375 1.375 2.175 3.237.8 1.863.8 4.013t-.8 4.012q-.8 1.863-2.175 3.238-1.375 1.375-3.238 2.175-1.862.8-4.012.8Z"/></svg>

<svg xmlns="http://www.w3.org/2000/svg" height="24" width="24"><path d="M8.65 16.975Q9.4 17.475 10.25 17.738Q11.1 18 12 18Q14.5 18 16.25 16.25Q18 14.5 18 12Q18 9.8 16.625 8.15Q15.25 6.5 13.15 6.1Q12.7 6.025 12.35 6.337Q12 6.65 12 7.175V12L8.575 15.425Q8.225 15.775 8.238 16.25Q8.25 16.725 8.65 16.975ZM12 22.225Q9.85 22.225 7.988 21.425Q6.125 20.625 4.75 19.25Q3.375 17.875 2.575 16.012Q1.775 14.15 1.775 12Q1.775 9.85 2.575 7.987Q3.375 6.125 4.75 4.75Q6.125 3.375 7.988 2.575Q9.85 1.775 12 1.775Q14.15 1.775 16.012 2.575Q17.875 3.375 19.25 4.75Q20.625 6.125 21.425 7.987Q22.225 9.85 22.225 12Q22.225 14.15 21.425 16.012Q20.625 17.875 19.25 19.25Q17.875 20.625 16.012 21.425Q14.15 22.225 12 22.225Z"/></svg>
